Origami/16x16/apps/contact-editor.svg

<svg width="16" height="16" version="1" xmlns="http://www.w3.org/2000/svg">
 <rect transform="matrix(0,-1,-1,0,0,0)" x="-16" y="-16" width="16" height="16" rx="8" ry="8" style="fill:#a559d6"/>
 <path d="m8 3c-1.6566 0-3 1.3434-3 3s1.3434 3 3 3 3-1.3434 3-3-1.3434-3-3-3zm-0.9082031 7c-1.3371 0-3.0917969 1-3.0917969 3h8c0-2-1.753497-3-3.0917969-3h-1.8164062z" style="fill:#4d4d4d"/>
</svg>

<svg xmlns="http://www.w3.org/2000/svg" width="16" height="16" version="1">
 <rect style="fill:#a559d6" width="16" height="16" x="-16" y="-16" rx="8" ry="8" transform="matrix(0,-1,-1,0,0,0)"/>
 <path style="fill:#4d4d4d" d="M 8 3 C 6.3434 3 5 4.3434 5 6 C 5 7.6566 6.3434 9 8 9 C 9.6566 9 11 7.6566 11 6 C 11 4.3434 9.6566 3 8 3 z M 7.0917969 10 C 5.7546969 10 4 11 4 13 L 12 13 C 12 11 10.246503 10 8.9082031 10 L 7.0917969 10 z"/>
</svg>
